Sources/FrostedUI/Resources/Icons.xcassets/linkedin32.imageset/linkedin-32.svg

<svg width="32" height="32" viewBox="0 0 32 32" fill="none" xmlns="http://www.w3.org/2000/svg" data-fui-icon="true">
  <path
    d="M26.2234 4H5.77187C4.79219 4 4 4.77344 4 5.72969V26.2656C4 27.2219 4.79219 28 5.77187 28H26.2234C27.2031 28 28 27.2219 28 26.2703V5.72969C28 4.77344 27.2031 4 26.2234 4ZM11.1203 24.4516H7.55781V12.9953H11.1203V24.4516ZM9.33906 11.4344C8.19531 11.4344 7.27188 10.5109 7.27188 9.37187C7.27188 8.23281 8.19531 7.30937 9.33906 7.30937C10.4781 7.30937 11.4016 8.23281 11.4016 9.37187C11.4016 10.5062 10.4781 11.4344 9.33906 11.4344ZM24.4516 24.4516H20.8937V18.8828C20.8937 17.5562 20.8703 15.8453 19.0422 15.8453C17.1906 15.8453 16.9094 17.2937 16.9094 18.7891V24.4516H13.3563V12.9953H16.7687V14.5609H16.8156C17.2891 13.6609 18.4516 12.7094 20.1813 12.7094C23.7859 12.7094 24.4516 15.0813 24.4516 18.1656V24.4516Z"
    fill="currentColor"
  />
</svg>

<svg xmlns="http://www.w3.org/2000/svg" width="32" height="32" fill="none" data-fui-icon="true" viewBox="0 0 32 32"><path fill="currentColor" d="M26.223 4H5.772C4.792 4 4 4.773 4 5.73v20.536C4 27.222 4.792 28 5.772 28h20.451c.98 0 1.777-.778 1.777-1.73V5.73C28 4.773 27.203 4 26.223 4M11.12 24.452H7.558V12.995h3.562zM9.34 11.434a2.064 2.064 0 1 1 0-4.125 2.063 2.063 0 0 1 0 4.125m15.112 13.018h-3.558v-5.57c0-1.326-.024-3.037-1.852-3.037-1.851 0-2.133 1.449-2.133 2.944v5.663h-3.553V12.995h3.413v1.566h.047c.473-.9 1.636-1.852 3.365-1.852 3.605 0 4.27 2.372 4.27 5.457z"/></svg>
